X:5089
T:Charlie Murray
M:4/4
R:Reel
L:1/8
Q:180
C:Aidan Crossey
K:Em
E2BE dEBE|AcBA GDEG|E2BE dEBE|AcBA GE (3EEE|
E2BE dEBE|AcBA GDEG|E2BE dEBE|AcBA GDEF||
G2BG dGBG|AcBA GDEF|G2BG dGBG|AcBA GE (3EEE|
G2BG dGBG|AcBA GDEF|G2BG dGBG|AcBA GABc||
d2gd bdgd|egdB AGAB|d2gd bdgd|edef g2ga|
bagf gfed|edeg B2BA|G2GA BcBA|GEED E4||
